dist/img/svg/ic_share.svg

<svg width="25" height="25" viewBox="0 0 25 25" fill="none" xmlns="http://www.w3.org/2000/svg">
<path d="M12.8334 16.1501C13.1095 16.1501 13.3334 15.9262 13.3334 15.6501V4.71079L15.4214 6.80747C15.6171 6.99748 15.9291 6.99553 16.1223 6.803C16.3157 6.61062 16.3191 6.29868 16.1301 6.10211L13.1873 3.14747C13.0937 3.05302 12.9663 3.00001 12.8334 3.00001C12.7004 3.00001 12.5731 3.05302 12.4795 3.14747L9.53667 6.10211C9.34764 6.29868 9.35112 6.61061 9.54448 6.803C9.73771 6.99553 10.0497 6.99748 10.2454 6.80747L12.3334 4.71079V15.6501C12.3334 15.9262 12.5573 16.1501 12.8334 16.1501H12.8334Z" fill="#202125" stroke="black" stroke-width="0.3"/>
<path d="M22.1666 11.494C22.0339 11.494 21.9067 11.5467 21.8128 11.6406C21.719 11.7345 21.6665 11.8619 21.6666 11.9946V16.9221C21.6659 17.7728 21.3277 18.5885 20.7264 19.1904C20.125 19.7922 19.3094 20.1308 18.4586 20.132H7.21787C6.36448 20.1309 5.54641 19.7913 4.9432 19.1878C4.3398 18.5843 4.00066 17.7661 3.99998 16.9127V11.9834C3.99998 11.7073 3.77607 11.4834 3.49998 11.4834C3.22375 11.4834 2.99998 11.7073 2.99998 11.9834V16.9127C3.00082 18.0311 3.44545 19.1037 4.2363 19.8947C5.02705 20.6857 6.09945 21.1307 7.21787 21.132H18.4586C19.5744 21.1306 20.644 20.6867 21.4328 19.8977C22.2217 19.1087 22.6653 18.0391 22.6666 16.9233V11.9933C22.6666 11.8608 22.614 11.7337 22.5201 11.64C22.4264 11.5464 22.2991 11.4938 22.1666 11.4941V11.494Z" fill="#202125" stroke="black" stroke-width="0.3"/>
</svg>

<svg width="25" height="25" viewBox="0 0 25 25" fill="none" xmlns="http://www.w3.org/2000/svg"><path d="M12.833 16.15a.5.5 0 00.5-.5V4.71l2.088 2.097a.5.5 0 00.71-.705l-2.944-2.955a.498.498 0 00-.707 0L9.537 6.102a.5.5 0 00.708.705l2.088-2.096v10.94a.5.5 0 00.5.5h0z" fill="#202125" stroke="#000" stroke-width=".3"/><path d="M22.167 11.494a.5.5 0 00-.5.5v4.928a3.213 3.213 0 01-3.208 3.21H7.218A3.222 3.222 0 014 16.912v-4.929a.5.5 0 00-1 0v4.93a4.222 4.222 0 004.218 4.219h11.24a4.213 4.213 0 004.209-4.209v-4.93a.499.499 0 00-.5-.499v0z" fill="#202125" stroke="#000" stroke-width=".3"/></svg>
